modules/themify-icons/icons/microsoft.svg

<?xml version="1.0" encoding="utf-8"?>
<!-- Generated by IcoMoon.io -->
<!DOCTYPE svg PUBLIC "-//W3C//DTD SVG 1.1//EN" "http://www.w3.org/Graphics/SVG/1.1/DTD/svg11.dtd">
<svg version="1.1" xmlns="http://www.w3.org/2000/svg" xmlns:xlink="http://www.w3.org/1999/xlink" width="17" height="17" viewBox="0 0 17 17">
<g>
</g>
	<path d="M7.734 15.723l9.266 1.277v-8.030h-9.266v6.753zM8.734 9.97h7.266v5.883l-7.266-1.002v-4.881zM0 14.661l6.967 0.959v-6.65h-6.967v5.691zM1 9.97h4.967v4.503l-4.967-0.684v-3.819zM0 8.112h6.967v-6.732l-6.967 0.959v5.773zM1 3.21l4.967-0.684v4.585h-4.967v-3.901zM7.734 1.277v6.835h9.266v-8.112l-9.266 1.277zM16 7.112h-7.266v-4.963l7.266-1.002v5.965z" fill="#000000" />
</svg>

<svg xmlns="http://www.w3.org/2000/svg" width="17" height="17"><path d="M7.734 15.723L17 17V8.97H7.734v6.753zm1-5.753H16v5.883l-7.266-1.002V9.97zM0 14.661l6.967.959V8.97H0v5.691zM1 9.97h4.967v4.503L1 13.789V9.97zM0 8.112h6.967V1.38L0 2.339v5.773zM1 3.21l4.967-.684v4.585H1V3.21zm6.734-1.933v6.835H17V0L7.734 1.277zM16 7.112H8.734V2.149L16 1.147v5.965z"/></svg>
